X:823
T:Leitrim Bucks, The
T:Bucks of Oranmore, The
R:reel
H:cf. #148
Z:id:hn-reel-823
M:C|
L:1/8
K:D
~A3B ADED | A2FA BddB | ~A3B AFED | EFGA BedB | A2AB ADED |
A2FA BGdB | AFBF AFED | EFGA Be~e2 |: dcBc d2 (3ABc | d2cA BE~E2 |
dcBA BAGF |1 EFGA BE~E2 :|2 EFGA (3Bcd ed || f2ab afdf |
abfd eB~B2 | f2ab afef | d2fd edBA | fa~a2 afdf | a2fd eB~B2 |
fa~a2 b2af | defd efde |: f2df efde | f2fd edBA | ~f3d efdB |
[1 ABdf eB~B2 :|2 Adfd efdB ||
P:version 2:
|:A2FA AD (3FED | A2FA BcdB | A2FA AD (3FED | EFGA BE~E2 :|
|: dcBc d2Bc | d2cA BE~E2 | dcBA BAGF | EFGA BE~E2 :||: fa~a2 afdf |
a2fd eB~B2 | fa~a2 afdf |1 defd eB~B2 :|2 defd e2de |: ~f3g fede |
f2df eB~B2 | ~f3d e2fe |1 d2fd eB~B2 :|2 defd e2dB ||

